;FLAVOR:Marlin
;TIME:9765
;Filament used: 5.8663m
;Layer height: 0.2
;MINX:27.752
;MINY:43.98
;MINZ:0.2
;MAXX:192.25
;MAXY:176.001
;MAXZ:13.2
;Generated with Cura_SteamEngine 5.2.2
M82 ;absolute extrusion mode
; Ender 3 Custom Start G-code
G92 E0 ; Reset Extruder
G28 ; Home all axes
M104 S175 ; Start heating up the nozzle most of the way
M190 S60 ; Start heating the bed, wait until target temperature reached
M109 S200 ; Finish heating the nozzle
G1 Z2.0 F3000 ; Move Z Axis up little to prevent scratching of Heat Bed
G1 X0.1 Y20 Z0.3 F5000.0 ; Move to start position
G1 X0.1 Y200.0 Z0.3 F1500.0 E15 ; Draw the first line
G1 X0.4 Y200.0 Z0.3 F5000.0 ; Move to side a little
G1 X0.4 Y20 Z0.3 F1500.0 E30 ; Draw the second line
G92 E0 ; Reset Extruder
G1 Z2.0 F3000 ; Move Z Axis up little to prevent scratching of Heat Bed
G1 X5 Y20 Z0.3 F5000.0 ; Move over to prevent blob squish
G92 E0
G92 E0
G1 F1500 E-6.5
;LAYER_COUNT:66
;LAYER:0
M107
G0 F6000 X59.232 Y52.258 Z0.2
;TYPE:SKIRT
G1 F1500 E0
G1 F1200 X59.868 Y51.569 E0.03119
G1 X60.52 Y50.969 E0.06066
G1 X61.176 Y50.415 E0.08922
G1 X62.347 Y49.455 E0.13958
G1 X63.067 Y48.882 E0.17018
G1 X63.825 Y48.33 E0.20137
G1 X64.577 Y47.873 E0.23064
G1 X65.332 Y47.456 E0.25933
G1 X66.703 Y46.723 E0.31103
G1 X67.452 Y46.335 E0.33909
G1 X68.303 Y45.941 E0.37028
G1 X69.138 Y45.635 E0.39986
G1 X69.955 Y45.374 E0.42839
G1 X71.457 Y44.919 E0.48058
G1 X72.276 Y44.683 E0.50893
G1 X73.188 Y44.462 E0.54014
G1 X74.069 Y44.325 E0.5698
G1 X74.887 Y44.233 E0.59718
G1 X76.228 Y44.101 E0.64199
G1 X76.907 Y44.043 E0.66466
G1 X77.598 Y44.006 E0.68768
G1 X78.788 Y43.981 E0.72726
G1 X137.935 Y43.98 E2.6945
G1 X138.463 Y43.987 E2.71206
G1 X139.168 Y44.019 E2.73554
G1 X140.367 Y44.112 E2.77554
G1 X141.705 Y44.243 E2.82025
G1 X142.395 Y44.32 E2.84334
G1 X143.322 Y44.464 E2.87454
G1 X144.197 Y44.675 E2.90448
G1 X144.969 Y44.897 E2.9312
G1 X146.668 Y45.412 E2.99025
G1 X147.334 Y45.624 E3.01349
G1 X148.214 Y45.947 E3.04467
G1 X149.05 Y46.335 E3.07533
G1 X149.79 Y46.719 E3.10305
G1 X151.155 Y47.448 E3.15452
G1 X151.959 Y47.894 E3.1851
G1 X152.758 Y48.384 E3.21628
G1 X153.479 Y48.914 E3.24604
G1 X154.112 Y49.421 E3.27301
G1 X155.441 Y50.513 E3.33022
G1 X155.958 Y50.949 E3.35272
G1 X156.648 Y51.584 E3.38391
G1 X157.261 Y52.25 E3.41401
G1 X157.813 Y52.904 E3.44248
G1 X158.871 Y54.195 E3.49799
G1 X159.321 Y54.757 E3.52194
G1 X159.875 Y55.513 E3.55311
G1 X160.215 Y56.055 E3.57439
G1 X160.458 Y56.469 E3.59036
G1 X161.826 Y58.718 E3.67791
G1 X163.186 Y60.82 E3.76118
G1 X164.617 Y62.898 E3.8451
G1 X166.094 Y64.921 E3.92841
G1 X167.652 Y66.933 E4.01305
G1 X169.231 Y68.855 E4.09578
G1 X170.899 Y70.773 E4.18032
G1 X172.596 Y72.616 E4.26365
G1 X174.355 Y74.422 E4.3475
G1 X176.167 Y76.179 E4.43145
G1 X177.996 Y77.856 E4.51398
G1 X179.931 Y79.53 E4.59908
G1 X181.851 Y81.099 E4.68155
G1 X183.868 Y82.655 E4.76628
G1 X185.713 Y84.002 E4.84226
G1 X186.446 Y84.587 E4.87345
G1 X187.127 Y85.232 E4.90465
G1 X187.75 Y85.933 E4.93584
G1 X188.311 Y86.684 E4.96702
G1 X188.807 Y87.481 E4.99824
G1 X189.232 Y88.316 E5.0294
G1 X189.585 Y89.185 E5.0606
G1 X189.741 Y89.654 E5.07704
G1 X190.102 Y90.835 E5.11811
G1 X191.65 Y96.254 E5.30556
G1 X191.86 Y97.029 E5.33226
G1 X192.066 Y97.944 E5.36346
G1 X192.193 Y98.873 E5.39465
G1 X192.238 Y99.71 E5.42252
G1 X192.25 Y100.493 E5.44857
G1 X192.249 Y161.693 E7.48409
G1 X192.239 Y162.422 E7.50834
G1 X192.186 Y163.358 E7.53952
G1 X192.054 Y164.287 E7.57073
G1 X191.843 Y165.201 E7.60193
G1 X191.555 Y166.093 E7.6331
G1 X191.192 Y166.958 E7.66431
G1 X190.756 Y167.789 E7.69552
G1 X190.252 Y168.579 E7.72669
G1 X189.681 Y169.324 E7.75791
G1 X189.05 Y170.017 E7.78908
G1 X188.362 Y170.654 E7.82026
G1 X187.622 Y171.231 E7.85147
G1 X186.669 Y171.838 E7.88905
G1 X185.573 Y172.46 E7.93097
G1 X184.739 Y172.887 E7.96213
G1 X183.871 Y173.243 E7.99333
G1 X182.715 Y173.588 E8.03346
G1 X182.403 Y173.663 E8.04413
G1 X181.483 Y173.843 E8.07531
G1 X180.55 Y173.945 E8.10653
G1 X179.408 Y173.96 E8.14451
G1 X176.822 Y173.86 E8.23059
G1 X174.33 Y173.835 E8.31348
G1 X171.798 Y173.879 E8.3977
G1 X170.119 Y173.948 E8.4536
G1 X169.181 Y173.946 E8.48479
G1 X168.19 Y173.857 E8.51789
G1 X165.85 Y173.539 E8.59643
G1 X163.356 Y173.267 E8.67987
G1 X160.808 Y173.062 E8.76489
G1 X158.324 Y172.932 E8.84763
G1 X155.798 Y172.873 E8.93166
G1 X153.28 Y172.883 E9.01541
G1 X148.957 Y173.026 E9.15928
G1 X146.463 Y173.176 E9.24238
G1 X143.929 Y173.402 E9.32699
G1 X141.419 Y173.697 E9.41105
G1 X138.905 Y174.064 E9.49555
G1 X137.911 Y174.228 E9.52906
G1 X136.98 Y174.341 E9.56025
G1 X136.498 Y174.368 E9.57631
G1 X135.641 Y174.397 E9.60483
G1 X134.237 Y174.416 E9.65153
G1 X127.445 Y174.434 E9.87743
G1 X126.571 Y174.423 E9.90651
G1 X125.635 Y174.369 E9.93769
G1 X124.707 Y174.236 E9.96887
G1 X123.793 Y174.024 E10.00008
G1 X122.957 Y173.756 E10.02928
G1 X122.155 Y173.463 E10.05767
G1 X121.135 Y173.074 E10.09398
G1 X118.733 Y172.233 E10.17863
G1 X116.34 Y171.471 E10.26216
G1 X113.906 Y170.77 E10.3464
G1 X111.513 Y170.155 E10.42858
G1 X109.027 Y169.589 E10.51338
G1 X106.553 Y169.1 E10.59726
G1 X104.087 Y168.684 E10.68044
G1 X101.57 Y168.332 E10.76497
G1 X99.106 Y168.059 E10.84742
G1 X96.557 Y167.849 E10.93249
G1 X94.052 Y167.714 E11.01593
G1 X91.561 Y167.65 E11.09881
G1 X89.038 Y167.657 E11.18272
G1 X86.509 Y167.735 E11.26688
G1 X83.989 Y167.884 E11.35084
G1 X81.485 Y168.104 E11.43444
G1 X78.996 Y168.394 E11.51779
G1 X76.499 Y168.756 E11.60171
G1 X74.022 Y169.187 E11.68533
G1 X71.564 Y169.686 E11.76875
G1 X69.104 Y170.26 E11.85277
G1 X66.695 Y170.894 E11.93562
G1 X64.229 Y171.617 E12.02109
G1 X61.871 Y172.383 E12.10355
G1 X59.499 Y173.227 E12.18729
G1 X57.152 Y174.137 E12.27102
G1 X54.924 Y175.072 E12.35138
G1 X54.045 Y175.397 E12.38255
G1 X53.218 Y175.629 E12.41112
G1 X52.878 Y175.71 E12.42274
G1 X51.957 Y175.888 E12.45394
G1 X51.025 Y175.987 E12.48512
G1 X49.901 Y176.001 E12.5225
G1 X47.59 Y175.911 E12.59943
G1 X45.086 Y175.878 E12.68272
G1 X42.506 Y175.917 E12.76854
G1 X40.615 Y175.992 E12.83148
G1 X39.678 Y175.989 E12.86265
G1 X38.743 Y175.907 E12.89386
G1 X37.82 Y175.744 E12.92504
G1 X37.007 Y175.539 E12.95293
G1 X36.112 Y175.26 E12.98411
G1 X35.244 Y174.905 E13.0153
G1 X34.318 Y174.426 E13.04997
G1 X33.296 Y173.834 E13.08926
G1 X32.506 Y173.33 E13.12042
G1 X31.761 Y172.76 E13.15162
G1 X31.067 Y172.129 E13.18282
G1 X30.43 Y171.441 E13.214
G1 X29.853 Y170.701 E13.24522
G1 X29.342 Y169.915 E13.2764
G1 X28.899 Y169.088 E13.3076
G1 X28.529 Y168.227 E13.33877
G1 X28.233 Y167.337 E13.36997
G1 X28.014 Y166.425 E13.40116
G1 X27.874 Y165.497 E13.43238
G1 X27.816 Y164.669 E13.45998
G1 X27.783 Y163.572 E13.49649
G1 X27.77 Y162.443 E13.53404
G1 X27.752 Y155.674 E13.75918
G1 X27.762 Y154.819 E13.78762
G1 X27.814 Y153.882 E13.81883
G1 X27.946 Y152.954 E13.85001
G1 X28.157 Y152.04 E13.8812
G1 X28.444 Y151.147 E13.9124
G1 X28.665 Y150.596 E13.93215
G1 X29.058 Y149.69 E13.96499
G1 X29.462 Y148.788 E13.99787
G1 X30.429 Y146.458 E14.08177
G1 X31.322 Y144.121 E14.16498
G1 X32.153 Y141.749 E14.24858
G1 X32.916 Y139.354 E14.33218
G1 X33.62 Y136.911 E14.41674
G1 X34.235 Y134.52 E14.49885
G1 X34.799 Y132.045 E14.58328
G1 X35.294 Y129.545 E14.66805
G1 X35.706 Y127.108 E14.75025
G1 X36.058 Y124.591 E14.83478
G1 X36.334 Y122.103 E14.91804
G1 X36.543 Y119.569 E15.00261
G1 X36.676 Y117.114 E15.08438
G1 X36.75 Y113.399 E15.20797
G1 X36.751 Y102.475 E15.5713
G1 X36.762 Y101.768 E15.59482
G1 X36.817 Y100.832 E15.62601
G1 X36.951 Y99.903 E15.65722
G1 X37.128 Y99.12 E15.68392
G1 X37.324 Y98.39 E15.70906
G1 X39.041 Y92.384 E15.91683
G1 X39.235 Y91.744 E15.93907
G1 X39.545 Y90.859 E15.97026
G1 X39.929 Y90.003 E16.00146
G1 X40.385 Y89.184 E16.03264
G1 X40.709 Y88.686 E16.0524
G1 X41.301 Y87.829 E16.08704
G1 X42.719 Y85.708 E16.1719
G1 X44.052 Y83.588 E16.25519
G1 X45.338 Y81.405 E16.33946
G1 X46.551 Y79.208 E16.42293
G1 X47.71 Y76.959 E16.50708
G1 X48.79 Y74.711 E16.59003
G1 X49.828 Y72.384 E16.67478
G1 X50.787 Y70.058 E16.75846
G1 X51.673 Y67.724 E16.8415
G1 X52.502 Y65.342 E16.92538
G1 X53.238 Y63.025 E17.00624
G1 X53.643 Y61.69 E17.05264
G1 X53.897 Y60.889 E17.08059
G1 X54.218 Y60.008 E17.11178
G1 X54.612 Y59.162 E17.14282
G1 X54.973 Y58.466 E17.16889
G1 X55.73 Y57.052 E17.22224
G1 X56.153 Y56.288 E17.25129
G1 X56.643 Y55.488 E17.28249
G1 X57.158 Y54.784 E17.3115
G1 X57.641 Y54.178 E17.33727
G1 X58.761 Y52.815 E17.39595
G1 X59.232 Y52.258 E17.42021
G0 F6000 X59.538 Y52.517
G1 F1200 X60.162 Y51.84 E17.45083
G1 X60.779 Y51.274 E17.47868
G1 X61.297 Y50.835 E17.50127
G1 X62.727 Y49.663 E17.56276
G1 X63.316 Y49.195 E17.58778
G1 X64.061 Y48.654 E17.6184
G1 X64.771 Y48.223 E17.64603
G1 X65.52 Y47.809 E17.67449
G1 X66.891 Y47.076 E17.7262
G1 X67.635 Y46.691 E17.75406
G1 X68.471 Y46.304 E17.7847
G1 X69.26 Y46.016 E17.81264
G1 X70.071 Y45.757 E17.84096
G1 X71.573 Y45.302 E17.89315
G1 X72.387 Y45.067 E17.92133
G1 X73.282 Y44.851 E17.95196
G1 X74.114 Y44.722 E17.97996
G1 X74.762 Y44.648 E18.00165
G1 X76.417 Y44.485 E18.05696
G1 X76.94 Y44.441 E18.07442
G1 X77.606 Y44.406 E18.0966
G1 X78.796 Y44.381 E18.13619
G1 X137.93 Y44.38 E20.103
G1 X138.458 Y44.387 E20.12056
G1 X139.137 Y44.418 E20.14317
G1 X140.336 Y44.511 E20.18316
G1 X141.661 Y44.64 E20.22744
G1 X142.351 Y44.717 E20.25053
G1 X143.26 Y44.859 E20.28113
G1 X144.087 Y45.06 E20.30944
G1 X144.853 Y45.28 E20.33595
G1 X146.546 Y45.793 E20.39479
G1 X147.212 Y46.005 E20.41803
G1 X148.077 Y46.322 E20.44867
G1 X148.866 Y46.691 E20.47764
G1 X149.602 Y47.072 E20.50521
G1 X150.967 Y47.801 E20.55668
G1 X151.764 Y48.243 E20.58699
G1 X152.548 Y48.725 E20.6176
G1 X153.229 Y49.226 E20.64572
G1 X153.858 Y49.73 E20.67253
G1 X155.074 Y50.728 E20.72485
G1 X155.7 Y51.255 E20.75207
G1 X156.377 Y51.878 E20.78267
G1 X156.956 Y52.508 E20.81113
G1 X157.398 Y53.03 E20.83388
G1 X158.48 Y54.348 E20.89059
G1 X159.008 Y55.007 E20.91868
G1 X159.552 Y55.75 E20.94931
G1 X159.871 Y56.258 E20.96926
G1 X160.145 Y56.724 E20.98724
G1 X161.481 Y58.921 E21.07276
G1 X162.848 Y61.034 E21.15646
G1 X164.297 Y63.139 E21.24146
G1 X165.787 Y65.179 E21.32548
G1 X167.332 Y67.173 E21.40938
G1 X168.936 Y69.126 E21.49344
G1 X170.587 Y71.024 E21.57711
G1 X172.316 Y72.902 E21.66201
G1 X174.055 Y74.688 E21.74492
G1 X175.883 Y76.46 E21.8296
G1 X177.766 Y78.187 E21.91458
G1 X179.641 Y79.809 E21.99704
G1 X181.621 Y81.427 E22.08208
G1 X183.628 Y82.975 E22.16639
G1 X185.477 Y84.325 E22.24253
G1 X186.196 Y84.9 E22.27315
G1 X186.863 Y85.535 E22.30378
G1 X187.472 Y86.225 E22.33439
G1 X188.019 Y86.966 E22.36502
G1 X188.5 Y87.751 E22.39565
G1 X188.91 Y88.575 E22.42626
G1 X189.359 Y89.771 E22.46875
G1 X189.657 Y90.74 E22.50247
G1 X191.265 Y96.363 E22.69698
G1 X191.474 Y97.133 E22.72352
G1 X191.675 Y98.031 E22.75413
G1 X191.797 Y98.944 E22.78476
G1 X191.839 Y99.717 E22.81051
G1 X191.849 Y100.316 E22.83044
G1 X191.849 Y161.687 E24.87165
G1 X191.839 Y162.416 E24.89589
G1 X191.786 Y163.336 E24.92654
G1 X191.654 Y164.247 E24.95716
G1 X191.444 Y165.143 E24.98777
G1 X191.156 Y166.017 E25.01838
G1 X190.793 Y166.864 E25.04903
G1 X190.359 Y167.675 E25.07962
G1 X189.855 Y168.446 E25.11026
G1 X189.287 Y169.171 E25.14089
G1 X188.658 Y169.843 E25.1715
G1 X187.973 Y170.458 E25.20212
G1 X187.237 Y171.011 E25.23274
G1 X186.472 Y171.49 E25.26276
G1 X185.376 Y172.112 E25.30468
G1 X184.556 Y172.531 E25.3353
G1 X183.703 Y172.878 E25.36593
G1 X182.622 Y173.199 E25.40344
G1 X182.31 Y173.274 E25.41411
G1 X181.406 Y173.451 E25.44475
G1 X180.49 Y173.548 E25.47538
G1 X179.423 Y173.56 E25.51088
G1 X176.841 Y173.46 E25.59682
G1 X174.327 Y173.435 E25.68044
G1 X171.775 Y173.48 E25.76533
G1 X170.103 Y173.548 E25.82099
G1 X169.182 Y173.546 E25.85162
G1 X168.244 Y173.461 E25.88295
G1 X165.874 Y173.139 E25.9625
G1 X163.395 Y172.868 E26.04544
G1 X160.86 Y172.664 E26.13003
G1 X158.319 Y172.532 E26.21465
G1 X155.805 Y172.473 E26.29829
G1 X153.264 Y172.483 E26.38281
G1 X148.958 Y172.626 E26.52611
G1 X146.406 Y172.779 E26.61114
G1 X143.919 Y173.001 E26.69418
G1 X141.386 Y173.299 E26.77901
G1 X138.785 Y173.679 E26.86644
G1 X137.847 Y173.833 E26.89806
G1 X136.484 Y173.968 E26.94361
G1 X135.627 Y173.997 E26.97213
G1 X134.236 Y174.016 E27.0184
G1 X127.444 Y174.034 E27.24431
G1 X126.577 Y174.023 E27.27314
G1 X125.658 Y173.969 E27.30376
G1 X124.747 Y173.836 E27.33438
G1 X123.851 Y173.625 E27.365
G1 X123.095 Y173.38 E27.39143
G1 X122.144 Y173.032 E27.42511
G1 X121.243 Y172.687 E27.4572
G1 X118.881 Y171.861 E27.54043
G1 X116.434 Y171.081 E27.62585
G1 X114.043 Y170.393 E27.7086
G1 X111.595 Y169.764 E27.79267
G1 X109.081 Y169.191 E27.87843
G1 X106.661 Y168.713 E27.96047
G1 X104.138 Y168.287 E28.04558
G1 X101.637 Y167.937 E28.12957
G1 X99.111 Y167.658 E28.2141
G1 X96.613 Y167.451 E28.29747
G1 X94.083 Y167.315 E28.38174
G1 X91.535 Y167.25 E28.46651
G1 X89.025 Y167.257 E28.54999
G1 X86.507 Y167.335 E28.63378
G1 X83.97 Y167.485 E28.71831
G1 X81.437 Y167.707 E28.80288
G1 X78.929 Y167.999 E28.88686
G1 X76.439 Y168.36 E28.97055
G1 X73.945 Y168.794 E29.05474
G1 X71.498 Y169.291 E29.13779
G1 X69.016 Y169.87 E29.22256
G1 X66.552 Y170.519 E29.30731
G1 X64.129 Y171.229 E29.39129
G1 X61.729 Y172.009 E29.47522
G1 X59.356 Y172.853 E29.55899
G1 X57.001 Y173.767 E29.64301
G1 X54.769 Y174.703 E29.72351
G1 X53.906 Y175.022 E29.75411
G1 X53.126 Y175.239 E29.78104
G1 X52.786 Y175.32 E29.79266
G1 X51.882 Y175.495 E29.82329
G1 X50.966 Y175.59 E29.85392
G1 X49.916 Y175.601 E29.88884
G1 X47.61 Y175.511 E29.9656
G1 X45.085 Y175.478 E30.04959
G1 X42.526 Y175.517 E30.13471
G1 X40.6 Y175.593 E30.19882
G1 X39.679 Y175.589 E30.22945
G1 X38.762 Y175.505 E30.26008
G1 X37.46 Y175.246 E30.30423
G1 X37.11 Y175.153 E30.31628
G1 X36.231 Y174.878 E30.34691
G1 X35.38 Y174.528 E30.37752
G1 X34.519 Y174.08 E30.4098
G1 X33.497 Y173.488 E30.44908
G1 X32.721 Y172.993 E30.4797
G1 X31.991 Y172.432 E30.51032
G1 X31.313 Y171.809 E30.54094
G1 X30.691 Y171.13 E30.57157
G1 X30.13 Y170.4 E30.60219
G1 X29.635 Y169.624 E30.6328
G1 X29.209 Y168.808 E30.66342
G1 X28.855 Y167.958 E30.69405
G1 X28.577 Y167.08 E30.72468
G1 X28.376 Y166.182 E30.75528
G1 X28.253 Y165.27 E30.78589
G1 X28.215 Y164.656 E30.80635
G1 X28.187 Y163.784 E30.83537
G1 X28.17 Y162.442 E30.88001
G1 X28.152 Y155.673 E31.10515
G1 X28.162 Y154.824 E31.13339
G1 X28.214 Y153.905 E31.164
G1 X28.346 Y152.994 E31.19462
G1 X28.556 Y152.097 E31.22526
G1 X28.843 Y151.223 E31.25586
G1 X29.032 Y150.755 E31.27264
G1 X29.423 Y149.854 E31.30531
G1 X29.833 Y148.939 E31.33866
G1 X30.784 Y146.648 E31.42116
G1 X31.713 Y144.215 E31.50778
G1 X32.525 Y141.897 E31.58947
G1 X33.309 Y139.438 E31.67532
G1 X33.995 Y137.057 E31.75773
G1 X34.628 Y134.594 E31.84231
G1 X35.196 Y132.107 E31.92716
G1 X35.681 Y129.653 E32.01036
G1 X36.102 Y127.159 E32.09448
G1 X36.457 Y124.624 E32.17962
G1 X36.732 Y122.144 E32.26261
G1 X36.941 Y119.625 E32.34668
G1 X37.076 Y117.112 E32.43038
G1 X37.15 Y113.408 E32.5536
G1 X37.151 Y102.481 E32.91704
G1 X37.162 Y101.774 E32.94056
G1 X37.217 Y100.855 E32.97118
G1 X37.35 Y99.944 E33.0018
G1 X37.515 Y99.222 E33.02643
G1 X37.655 Y98.694 E33.0446
G1 X39.424 Y92.5 E33.25885
G1 X39.618 Y91.86 E33.28109
G1 X39.923 Y90.991 E33.31172
G1 X40.302 Y90.153 E33.34231
G1 X40.753 Y89.35 E33.37295
G1 X41.038 Y88.914 E33.39027
G1 X41.597 Y88.104 E33.423
G1 X43.063 Y85.912 E33.51071
G1 X44.402 Y83.783 E33.59436
G1 X45.674 Y81.622 E33.67777
G1 X46.914 Y79.378 E33.76304
G1 X48.054 Y77.165 E33.84584
G1 X49.158 Y74.868 E33.9306
G1 X50.186 Y72.563 E34.01454
G1 X51.171 Y70.174 E34.10049
G1 X52.05 Y67.86 E34.18282
G1 X52.881 Y65.468 E34.26704
G1 X53.616 Y63.157 E34.3477
G1 X54.067 Y61.674 E34.39926
G1 X54.278 Y61.01 E34.42243
