;FLAVOR:Marlin
;TIME:51015
;Filament used: 39.685m
;Layer height: 0.2
;MINX:14.717
;MINY:26.898
;MINZ:0.2
;MAXX:205.282
;MAXY:193.103
;MAXZ:61
;Generated with Cura_SteamEngine 5.2.2
M82 ;absolute extrusion mode
; Ender 3 Custom Start G-code
G92 E0 ; Reset Extruder
G28 ; Home all axes
M104 S175 ; Start heating up the nozzle most of the way
M190 S60 ; Start heating the bed, wait until target temperature reached
M109 S200 ; Finish heating the nozzle
G1 Z2.0 F3000 ; Move Z Axis up little to prevent scratching of Heat Bed
G1 X0.1 Y20 Z0.3 F5000.0 ; Move to start position
G1 X0.1 Y200.0 Z0.3 F1500.0 E15 ; Draw the first line
G1 X0.4 Y200.0 Z0.3 F5000.0 ; Move to side a little
G1 X0.4 Y20 Z0.3 F1500.0 E30 ; Draw the second line
G92 E0 ; Reset Extruder
G1 Z2.0 F3000 ; Move Z Axis up little to prevent scratching of Heat Bed
G1 X5 Y20 Z0.3 F5000.0 ; Move over to prevent blob squish
G92 E0
G92 E0
G1 F1500 E-6.5
;LAYER_COUNT:305
;LAYER:0
M107
G0 F6000 X73.018 Y53.673 Z0.2
;TYPE:SKIRT
G1 F1500 E0
G1 F1200 X73.592 Y52.931 E0.0312
G1 X74.226 Y52.24 E0.06239
G1 X74.916 Y51.606 E0.09356
G1 X75.659 Y51.032 E0.12479
G1 X76.447 Y50.524 E0.15597
G1 X77.276 Y50.085 E0.18717
G1 X78.139 Y49.719 E0.21835
G1 X79.03 Y49.427 E0.24953
G1 X79.943 Y49.212 E0.28073
G1 X80.871 Y49.076 E0.31193
G1 X81.803 Y49.019 E0.34298
G1 X82.931 Y49 E0.3805
G1 X137.448 Y49.001 E2.19375
G1 X138.141 Y49.011 E2.2168
G1 X139.077 Y49.065 E2.24798
G1 X140.005 Y49.198 E2.27916
G1 X140.919 Y49.409 E2.31036
G1 X141.811 Y49.698 E2.34155
G1 X142.676 Y50.062 E2.37276
G1 X143.506 Y50.498 E2.40395
G1 X144.296 Y51.003 E2.43513
G1 X145.041 Y51.574 E2.46635
G1 X145.734 Y52.206 E2.49755
G1 X146.37 Y52.894 E2.52871
G1 X146.946 Y53.635 E2.55992
G1 X147.459 Y54.426 E2.59128
G1 X148.038 Y55.412 E2.62931
G1 X156.14 Y69.735 E3.17663
G1 X156.539 Y70.46 E3.20416
G1 X156.963 Y71.316 E3.23593
G1 X157.331 Y72.15 E3.26625
G1 X157.695 Y73.005 E3.29715
G1 X158.731 Y75.267 E3.3799
G1 X159.855 Y77.547 E3.46445
G1 X161.031 Y79.773 E3.54819
G1 X162.096 Y81.668 E3.62048
G1 X173.837 Y102.015 E4.40182
G1 X174.15 Y102.576 E4.42318
G1 X174.61 Y103.5 E4.45751
G1 X174.755 Y103.829 E4.46947
G1 X175.096 Y104.702 E4.50064
G1 X175.313 Y105.415 E4.52543
G1 X175.548 Y106.306 E4.55608
G1 X175.708 Y106.978 E4.57906
G1 X175.886 Y107.899 E4.61026
G1 X176.001 Y109.167 E4.6526
G1 X176.015 Y109.596 E4.66688
G1 X176.021 Y110.215 E4.68747
G1 X175.981 Y111.152 E4.71866
G1 X175.913 Y111.751 E4.73871
G1 X175.789 Y112.602 E4.76731
G1 X175.724 Y112.982 E4.78014
G1 X175.526 Y113.899 E4.81134
G1 X175.302 Y114.648 E4.83734
G1 X175.026 Y115.465 E4.86602
G1 X174.689 Y116.34 E4.89721
G1 X174.337 Y117.072 E4.92423
G1 X173.967 Y117.766 E4.95038
G1 X173.624 Y118.376 E4.97366
G1 X148.773 Y161.371 E6.62537
G1 X148.41 Y161.978 E6.64889
G1 X147.894 Y162.761 E6.68008
G1 X147.449 Y163.341 E6.70439
G1 X147.057 Y163.808 E6.72467
G1 X146.646 Y164.271 E6.74526
G1 X145.994 Y164.946 E6.77648
G1 X145.453 Y165.427 E6.80056
G1 X144.844 Y165.922 E6.82666
G1 X144.326 Y166.319 E6.84836
G1 X143.558 Y166.857 E6.87955
G1 X142.814 Y167.292 E6.90822
G1 X142.295 Y167.569 E6.92778
G1 X141.45 Y167.975 E6.95896
G1 X140.332 Y168.384 E6.99856
G1 X139.789 Y168.544 E7.01739
G1 X138.983 Y168.76 E7.04514
G1 X138.346 Y168.919 E7.06698
G1 X137.427 Y169.107 E7.09818
G1 X136.39 Y169.223 E7.13288
G1 X135.847 Y169.258 E7.15098
G1 X135.288 Y169.28 E7.16959
G1 X134.545 Y169.289 E7.1943
G1 X85.022 Y169.279 E8.84144
G1 X84.281 Y169.267 E8.86609
G1 X83.345 Y169.211 E8.89728
G1 X82.826 Y169.146 E8.91468
G1 X82.313 Y169.069 E8.93193
G1 X81.103 Y168.817 E8.97304
G1 X80.417 Y168.629 E8.9967
G1 X79.961 Y168.493 E9.01252
G1 X79.075 Y168.187 E9.0437
G1 X78.203 Y167.799 E9.07544
G1 X77.739 Y167.568 E9.09268
G1 X77.062 Y167.21 E9.11815
G1 X76.256 Y166.731 E9.14934
G1 X75.592 Y166.26 E9.17642
G1 X74.976 Y165.78 E9.20239
G1 X74.596 Y165.466 E9.21878
G1 X73.899 Y164.838 E9.24999
G1 X73.071 Y163.929 E9.29089
G1 X72.339 Y163.02 E9.3297
G1 X72.013 Y162.59 E9.34765
G1 X71.342 Y161.596 E9.38754
G1 X70.897 Y160.851 E9.4164
G1 X46.27 Y118.172 E11.05528
G1 X45.858 Y117.435 E11.08336
G1 X45.437 Y116.598 E11.11453
G1 X45.198 Y116.025 E11.13518
G1 X44.975 Y115.445 E11.15584
G1 X44.722 Y114.731 E11.18104
G1 X44.454 Y113.832 E11.21224
G1 X44.266 Y112.927 E11.24298
G1 X44.171 Y112.348 E11.2625
G1 X44.066 Y111.593 E11.28785
G1 X43.983 Y110.659 E11.31904
G1 X43.976 Y109.805 E11.34744
G1 X43.995 Y109.202 E11.36751
G1 X44.065 Y108.266 E11.39873
G1 X44.149 Y107.683 E11.41832
G1 X44.213 Y107.311 E11.43087
G1 X44.34 Y106.664 E11.4528
G1 X44.665 Y105.44 E11.49492
G1 X44.929 Y104.669 E11.52203
G1 X45.158 Y104.063 E11.54357
G1 X45.527 Y103.2 E11.57479
G1 X45.75 Y102.759 E11.59123
G1 X46.189 Y101.952 E11.62178
G1 X57.134 Y83.012 E12.34935
G1 X58.399 Y80.75 E12.43555
G1 X59.552 Y78.544 E12.51834
G1 X60.661 Y76.269 E12.60252
G1 X61.735 Y73.894 E12.68921
G1 X62.206 Y72.796 E12.72895
G1 X62.74 Y71.717 E12.76899
G1 X72.1 Y55.166 E13.40141
G1 X72.511 Y54.462 E13.42852
G1 X73.018 Y53.673 E13.45972
G0 F6000 X73.355 Y53.89
G1 F1200 X73.919 Y53.163 E13.49032
G1 X74.545 Y52.487 E13.52097
G1 X75.226 Y51.868 E13.55157
G1 X75.959 Y51.311 E13.58219
G1 X76.737 Y50.819 E13.61281
G1 X77.555 Y50.396 E13.64344
G1 X78.407 Y50.046 E13.67407
G1 X79.285 Y49.772 E13.70467
G1 X80.185 Y49.574 E13.73532
G1 X81.098 Y49.456 E13.76594
G1 X81.81 Y49.419 E13.78965
G1 X82.931 Y49.4 E13.82694
G1 X137.289 Y49.4 E15.63489
G1 X138.135 Y49.411 E15.66303
G1 X139.054 Y49.464 E15.69365
G1 X139.965 Y49.597 E15.72427
G1 X140.861 Y49.809 E15.7549
G1 X141.735 Y50.097 E15.7855
G1 X142.582 Y50.46 E15.81615
G1 X143.393 Y50.895 E15.84676
G1 X144.163 Y51.399 E15.87737
G1 X144.887 Y51.968 E15.908
G1 X145.559 Y52.597 E15.93861
G1 X146.174 Y53.283 E15.96925
G1 X146.727 Y54.019 E15.99987
G1 X147.114 Y54.629 E16.0239
G1 X147.69 Y55.609 E16.06171
G1 X155.856 Y70.046 E16.61338
G1 X156.189 Y70.652 E16.63637
G1 X156.597 Y71.478 E16.66702
G1 X157.025 Y72.45 E16.70234
G1 X157.327 Y73.162 E16.72806
G1 X158.38 Y75.461 E16.81217
G1 X159.493 Y77.717 E16.89584
G1 X160.687 Y79.977 E16.98085
G1 X161.725 Y81.825 E17.05135
G1 X173.488 Y102.21 E17.83414
G1 X173.801 Y102.771 E17.85551
G1 X174.244 Y103.661 E17.88857
G1 X174.389 Y103.99 E17.90053
G1 X174.723 Y104.848 E17.93115
G1 X174.927 Y105.519 E17.95448
G1 X175.159 Y106.399 E17.98475
G1 X175.319 Y107.071 E18.00772
G1 X175.493 Y107.975 E18.03834
G1 X175.601 Y109.18 E18.07858
G1 X175.615 Y109.609 E18.09286
G1 X175.621 Y110.215 E18.11302
G1 X175.581 Y111.135 E18.14364
G1 X175.517 Y111.695 E18.16239
G1 X175.442 Y112.227 E18.18026
G1 X175.329 Y112.914 E18.20342
G1 X175.135 Y113.814 E18.23404
G1 X174.923 Y114.52 E18.25856
G1 X174.647 Y115.337 E18.28724
G1 X174.315 Y116.195 E18.31784
G1 X173.983 Y116.885 E18.3433
G1 X173.618 Y117.57 E18.36912
G1 X173.348 Y118.052 E18.3875
G1 X148.509 Y161.029 E20.03848
G1 X148.066 Y161.772 E20.06726
G1 X147.56 Y162.541 E20.09787
G1 X147.136 Y163.093 E20.12102
G1 X146.758 Y163.543 E20.14057
G1 X146.347 Y164.006 E20.16116
G1 X145.707 Y164.667 E20.19176
G1 X145.197 Y165.12 E20.21445
G1 X144.601 Y165.604 E20.23999
G1 X144.083 Y166.001 E20.26169
G1 X143.329 Y166.529 E20.29231
G1 X142.626 Y166.939 E20.31938
G1 X142.107 Y167.216 E20.33895
G1 X141.277 Y167.614 E20.36956
G1 X140.215 Y168.002 E20.40717
G1 X139.685 Y168.158 E20.42554
G1 X139.081 Y168.321 E20.44635
G1 X138.249 Y168.53 E20.47488
G1 X137.347 Y168.714 E20.5055
G1 X136.364 Y168.824 E20.5384
G1 X135.821 Y168.859 E20.5565
G1 X135.282 Y168.88 E20.57444
G1 X134.545 Y168.889 E20.59895
G1 X85.028 Y168.879 E22.24589
G1 X84.287 Y168.867 E22.27054
G1 X83.368 Y168.812 E22.30116
G1 X82.886 Y168.751 E22.31732
G1 X82.373 Y168.674 E22.33458
G1 X81.206 Y168.431 E22.37422
G1 X80.531 Y168.246 E22.3975
G1 X80.075 Y168.11 E22.41333
G1 X79.205 Y167.809 E22.44395
G1 X78.381 Y167.441 E22.47396
G1 X77.917 Y167.21 E22.4912
G1 X77.252 Y166.858 E22.51623
G1 X76.461 Y166.387 E22.54685
G1 X75.835 Y165.943 E22.57237
G1 X75.231 Y165.471 E22.59787
G1 X74.851 Y165.157 E22.61427
G1 X74.167 Y164.541 E22.64488
G1 X73.381 Y163.676 E22.68376
G1 X72.883 Y163.064 E22.71
G1 X72.332 Y162.348 E22.74005
G1 X71.686 Y161.391 E22.77845
G1 X71.244 Y160.651 E22.80712
G1 X46.617 Y117.972 E24.446
G1 X46.208 Y117.241 E24.47386
G1 X45.795 Y116.418 E24.50449
G1 X45.571 Y115.881 E24.52384
G1 X45.348 Y115.301 E24.54451
G1 X45.1 Y114.601 E24.56921
G1 X44.838 Y113.718 E24.59984
G1 X44.661 Y112.862 E24.62891
G1 X44.517 Y111.956 E24.65942
G1 X44.462 Y111.54 E24.67338
G1 X44.382 Y110.623 E24.704
G1 X44.376 Y109.817 E24.73081
G1 X44.395 Y109.214 E24.75087
G1 X44.464 Y108.296 E24.78149
G1 X44.543 Y107.751 E24.79981
G1 X44.607 Y107.379 E24.81236
G1 X44.732 Y106.744 E24.83389
G1 X45.045 Y105.565 E24.87446
G1 X45.303 Y104.81 E24.901
G1 X45.532 Y104.204 E24.92254
G1 X46.103 Y102.948 E24.96843
G1 X46.535 Y102.152 E24.99855
G1 X57.487 Y83.201 E25.72655
G1 X58.745 Y80.951 E25.81229
G1 X59.93 Y78.683 E25.8974
G1 X61.021 Y76.444 E25.98024
G1 X62.081 Y74.102 E26.06574
G1 X62.573 Y72.954 E26.10728
G1 X63.088 Y71.914 E26.14588
G1 X72.448 Y55.363 E26.7783
G1 X72.856 Y54.664 E26.80522
G1 X73.355 Y53.89 E26.83585
G0 F6000 X73.691 Y54.107
G1 F1200 X74.247 Y53.395 E26.8659
G1 X74.863 Y52.735 E26.89593
G1 X75.535 Y52.132 E26.92596
G1 X76.258 Y51.59 E26.95601
G1 X77.026 Y51.115 E26.98604
G1 X77.833 Y50.709 E27.01609
G1 X78.672 Y50.377 E27.0461
G1 X79.538 Y50.12 E27.07615
G1 X80.423 Y49.94 E27.10618
G1 X81.321 Y49.84 E27.13624
G1 X81.818 Y49.819 E27.15278
G1 X82.931 Y49.8 E27.18981
G1 X137.289 Y49.8 E28.99776
G1 X138.129 Y49.811 E29.0257
G1 X139.031 Y49.864 E29.05575
G1 X139.924 Y49.997 E29.08578
G1 X140.802 Y50.208 E29.11582
G1 X141.658 Y50.495 E29.14584
G1 X142.485 Y50.858 E29.17588
G1 X143.277 Y51.292 E29.20592
G1 X144.028 Y51.795 E29.23598
G1 X144.731 Y52.362 E29.26602
G1 X145.381 Y52.989 E29.29606
G1 X145.973 Y53.671 E29.3261
G1 X146.502 Y54.402 E29.35611
G1 X146.77 Y54.832 E29.37296
G1 X147.342 Y55.806 E29.41053
G1 X155.444 Y70.129 E29.95785
G1 X155.838 Y70.845 E29.98503
G1 X156.231 Y71.639 E30.0145
G1 X156.657 Y72.607 E30.04967
G1 X156.961 Y73.322 E30.07552
G1 X158.022 Y75.639 E30.16028
G1 X159.138 Y77.902 E30.2442
G1 X160.334 Y80.166 E30.32936
G1 X161.341 Y81.959 E30.39776
G1 X173.066 Y102.277 E31.17799
G1 X173.451 Y102.966 E31.20424
G1 X173.878 Y103.822 E31.23605
G1 X174.023 Y104.151 E31.24801
G1 X174.35 Y104.993 E31.27806
G1 X174.541 Y105.622 E31.29992
G1 X174.77 Y106.491 E31.32981
G1 X174.93 Y107.163 E31.35278
G1 X175.1 Y108.05 E31.38282
G1 X175.202 Y109.193 E31.42099
G1 X175.216 Y109.622 E31.43527
G1 X175.221 Y110.215 E31.45499
G1 X175.181 Y111.117 E31.48502
G1 X175.121 Y111.639 E31.5025
G1 X175.046 Y112.171 E31.52037
G1 X174.935 Y112.847 E31.54315
G1 X174.743 Y113.729 E31.57317
G1 X174.544 Y114.392 E31.5962
G1 X174.268 Y115.209 E31.62488
G1 X173.942 Y116.05 E31.65488
G1 X173.629 Y116.699 E31.67884
G1 X173.269 Y117.375 E31.70432
G1 X172.931 Y117.976 E31.72725
G1 X148.163 Y160.829 E33.37349
G1 X147.723 Y161.567 E33.40207
G1 X146.961 Y162.67 E33.44665
G1 X146.459 Y163.277 E33.47285
G1 X146.048 Y163.74 E33.49345
G1 X145.419 Y164.389 E33.52351
G1 X144.941 Y164.812 E33.54473
G1 X144.358 Y165.287 E33.56975
G1 X143.84 Y165.684 E33.59145
G1 X143.099 Y166.201 E33.62151
G1 X142.438 Y166.587 E33.64696
G1 X141.919 Y166.864 E33.66653
G1 X141.104 Y167.253 E33.69657
G1 X140.098 Y167.619 E33.73217
G1 X139.581 Y167.772 E33.75011
G1 X138.977 Y167.935 E33.77091
G1 X138.152 Y168.142 E33.7992
G1 X137.267 Y168.322 E33.82924
G1 X136.338 Y168.425 E33.86033
G1 X135.795 Y168.46 E33.87843
G1 X135.277 Y168.48 E33.89567
G1 X134.545 Y168.489 E33.92002
G1 X85.035 Y168.479 E35.56673
G1 X84.294 Y168.467 E35.59138
G1 X82.945 Y168.355 E35.6364
G1 X82.432 Y168.278 E35.65365
G1 X81.31 Y168.044 E35.69177
G1 X80.646 Y167.863 E35.71466
G1 X80.19 Y167.727 E35.73049
G1 X79.337 Y167.43 E35.76053
G1 X78.559 Y167.083 E35.78886
G1 X77.805 Y166.702 E35.81696
G1 X77.441 Y166.506 E35.83071
G1 X76.666 Y166.043 E35.86074
G1 X76.078 Y165.625 E35.88473
G1 X75.486 Y165.163 E35.90971
G1 X75.106 Y164.849 E35.92611
G1 X74.436 Y164.243 E35.95615
G1 X73.691 Y163.424 E35.99298
G1 X73.193 Y162.812 E36.01922
G1 X72.651 Y162.106 E36.04882
G1 X72.029 Y161.185 E36.08579
G1 X71.59 Y160.451 E36.11423
G1 X46.963 Y117.772 E37.75311
G1 X46.557 Y117.046 E37.78078
G1 X46.152 Y116.238 E37.81084
G1 X45.944 Y115.737 E37.82888
G1 X45.721 Y115.157 E37.84955
G1 X45.478 Y114.47 E37.87379
G1 X45.222 Y113.604 E37.90382
G1 X45.056 Y112.797 E37.93123
G1 X44.914 Y111.904 E37.9613
G1 X44.859 Y111.488 E37.97526
G1 X44.78 Y110.588 E38.00531
G1 X44.776 Y109.83 E38.03052
G1 X44.795 Y109.227 E38.05058
G1 X44.863 Y108.326 E38.08064
G1 X44.938 Y107.819 E38.09768
G1 X45.061 Y107.132 E38.1209
G1 X45.124 Y106.824 E38.13135
G1 X45.425 Y105.689 E38.17041
G1 X45.678 Y104.951 E38.19635
G1 X45.907 Y104.345 E38.2179
G1 X46.456 Y103.137 E38.26203
G1 X46.882 Y102.352 E38.29174
G1 X57.826 Y83.413 E39.01926
G1 X59.098 Y81.14 E39.10589
G1 X60.272 Y78.893 E39.19022
G1 X61.387 Y76.606 E39.27484
G1 X62.456 Y74.243 E39.3611
G1 X62.941 Y73.111 E39.40206
G1 X63.436 Y72.111 E39.43917
G1 X72.796 Y55.56 E40.07159
G1 X73.201 Y54.866 E40.09832
G1 X73.691 Y54.107 E40.12837
G1 F1500 E33.62837
G0 F6000 X110.679 Y59.335
G0 X110.679 Y82.769
G1 F1500 E40.12837
G1 F1200 X110.769 Y82.679 E40.1326
G1 X111 Y82.604 E40.14068
G1 X111.231 Y82.679 E40.14876
G1 X111.321 Y82.769 E40.15299
G1 X111.396 Y83 E40.16107
G1 X111.321 Y83.231 E40.16915
G1 X111.126 Y83.375 E40.17721
G1 X110.874 Y83.375 E40.18559
G1 X110.679 Y83.231 E40.19365
G1 X110.604 Y83 E40.20173
G1 X110.679 Y82.769 E40.20981
G0 F6000 X112 Y106.604
G1 F1200 X112.231 Y106.679 E40.21789
G1 X112.321 Y106.769 E40.22212
G1 X112.396 Y107 E40.2302
G1 X112.321 Y107.231 E40.23828
G1 X112.126 Y107.375 E40.24634
G1 X111.874 Y107.375 E40.25472
G1 X111.679 Y107.231 E40.26278
G1 X111.625 Y107.126 E40.26671
G1 X111.625 Y106.874 E40.27509
G1 X111.769 Y106.679 E40.28315
G1 X112 Y106.604 E40.29123
G0 F6000 X110.126 Y130.625
G1 F1200 X110.321 Y130.769 E40.29929
G1 X110.396 Y131 E40.30737
G1 X110.321 Y131.231 E40.31545
G1 X110.231 Y131.321 E40.31968
G1 X110 Y131.396 E40.32776
G1 X109.769 Y131.321 E40.33584
G1 X109.679 Y131.231 E40.34007
G1 X109.604 Y131 E40.34815
G1 X109.679 Y130.769 E40.35623
G1 X109.874 Y130.625 E40.36429
G1 X110.126 Y130.625 E40.37267
G1 F1500 E33.87267
G0 F6000 X83.231 Y110.321
G1 F1500 E40.37267
G1 F1200 X83 Y110.396 E40.38075
G1 X82.769 Y110.321 E40.38883
G1 X82.679 Y110.231 E40.39306
G1 X82.604 Y110 E40.40114
G1 X82.679 Y109.769 E40.40922
G1 X82.769 Y109.679 E40.41345
G1 X83 Y109.604 E40.42153
G1 X83.231 Y109.679 E40.42961
G1 X83.375 Y109.874 E40.43767
G1 X83.375 Y110.126 E40.44605
G1 X83.231 Y110.321 E40.45411
G1 F1500 E33.95411
G0 F6000 X61.057 Y123.117
G0 X80.219 Y156.324
G0 X81.097 Y157.447
G0 X81.907 Y158.093
G0 X82.846 Y158.579
G0 X83.81 Y158.853
G0 X84.473 Y158.944
G0 X135.759 Y158.923
G0 X137.368 Y158.496
G0 X138.059 Y158.114
G0 X138.886 Y157.46
G0 X139.518 Y156.73
G0 X165.237 Y112.174
G0 X165.531 Y111.326
G0 X165.697 Y110.28
G0 X165.684 Y109.46
G0 X165.328 Y108.046
G0 X158.052 Y95.338
G0 X137.625 Y107.126
G1 F1500 E40.45411
G1 F1200 X137.625 Y106.874 E40.46249
G1 X137.769 Y106.679 E40.47056
G1 X138 Y106.604 E40.47863
G1 X138.231 Y106.679 E40.48671
G1 X138.321 Y106.769 E40.49095
G1 X138.396 Y107 E40.49902
G1 X138.321 Y107.231 E40.5071
G1 X138.126 Y107.375 E40.51516
G1 X137.874 Y107.375 E40.52355
G1 X137.679 Y107.231 E40.53161
G1 X137.625 Y107.126 E40.53553
G0 F6000 X137.201 Y107
;TYPE:SUPPORT-INTERFACE
